Sources/FrostedUI/Resources/Icons.xcassets/checklist24.imageset/checklist-24.svg

<svg width="24" height="24" viewBox="0 0 24 24" fill="none" xmlns="http://www.w3.org/2000/svg" data-fui-icon="true">
  <path
    d="M12.75 8.75C12.3358 8.75 12 9.08579 12 9.5 12 9.91421 12.3358 10.25 12.75 10.25H16.25C16.6642 10.25 17 9.91421 17 9.5 17 9.08579 16.6642 8.75 16.25 8.75H12.75zM12 14C12 13.5858 12.3358 13.25 12.75 13.25H16.25C16.6642 13.25 17 13.5858 17 14 17 14.4142 16.6642 14.75 16.25 14.75H12.75C12.3358 14.75 12 14.4142 12 14zM12.75 17.75C12.3358 17.75 12 18.0858 12 18.5 12 18.9142 12.3358 19.25 12.75 19.25H16.25C16.6642 19.25 17 18.9142 17 18.5 17 18.0858 16.6642 17.75 16.25 17.75H12.75zM10.7439 8.18557C11.0556 8.45833 11.0872 8.93215 10.8144 9.24388L9.06443 11.2439C8.91821 11.411 8.70546 11.5047 8.48347 11.4998 8.26147 11.4949 8.05306 11.3919 7.91435 11.2185L6.91435 9.96852C6.65559 9.64507 6.70803 9.17311 7.03148 8.91435 7.35493 8.65559 7.82689 8.70803 8.08565 9.03148L8.52576 9.58161 9.68557 8.25612C9.95833 7.94439 10.4322 7.91281 10.7439 8.18557zM10.8144 13.7439C11.0872 13.4322 11.0556 12.9583 10.7439 12.6856 10.4322 12.4128 9.95833 12.4444 9.68557 12.7561L8.52576 14.0816 8.08565 13.5315C7.82689 13.208 7.35493 13.1556 7.03148 13.4143 6.70803 13.6731 6.65559 14.1451 6.91435 14.4685L7.91435 15.7185C8.05306 15.8919 8.26147 15.9949 8.48347 15.9998 8.70546 16.0047 8.91821 15.911 9.06443 15.7439L10.8144 13.7439zM10.7439 17.1856C11.0556 17.4583 11.0872 17.9321 10.8144 18.2439L9.06443 20.2439C8.91821 20.411 8.70546 20.5047 8.48347 20.4998 8.26147 20.4949 8.05306 20.3919 7.91435 20.2185L6.91435 18.9685C6.65559 18.6451 6.70803 18.1731 7.03148 17.9143 7.35493 17.6556 7.82689 17.708 8.08565 18.0315L8.52576 18.5816 9.68557 17.2561C9.95833 16.9444 10.4322 16.9128 10.7439 17.1856z"
    fill="currentColor"
  />
  <path
    fill-rule="evenodd"
    clip-rule="evenodd"
    d="M11.216 0.5C10.5821 0.5 10.0166 0.898506 9.80343 1.4955L9.62325 2H8.50106C7.84884 2 7.29179 2.41681 7.08543 3H5.625C4.17525 3 3 4.17525 3 5.625V21.375C3 22.8247 4.17525 24 5.625 24H18.375C19.8247 24 21 22.8247 21 21.375V5.625C21 4.17525 19.8247 3 18.375 3H16.9146C16.7082 2.41681 16.1512 2 15.4989 2H14.3768L14.1966 1.49549C13.9834 0.898505 13.4179 0.5 12.784 0.5H11.216ZM19.5 5.625C19.5 5.00368 18.9963 4.5 18.375 4.5H17V5C17 5.82843 16.3284 6.5 15.5 6.5H8.5C7.67157 6.5 7 5.82843 7 5V4.5H5.625C5.00368 4.5 4.5 5.00368 4.5 5.625V21.375C4.5 21.9963 5.00368 22.5 5.625 22.5H18.375C18.9963 22.5 19.5 21.9963 19.5 21.375V5.625ZM11.216 2L12.784 2L13.1419 3.00225C13.2485 3.30075 13.5313 3.5 13.8482 3.5L15.4991 3.49977L15.5 3.50053V5H8.5L8.50001 3.50052L8.50106 3.5H10.1518C10.4687 3.5 10.7515 3.30075 10.8581 3.00225L11.216 2Z"
    fill="currentColor"
  />
</svg>

<svg xmlns="http://www.w3.org/2000/svg" width="24" height="24" fill="none" data-fui-icon="true" viewBox="0 0 24 24"><path fill="currentColor" d="M12.75 8.75a.75.75 0 0 0 0 1.5h3.5a.75.75 0 0 0 0-1.5zM12 14a.75.75 0 0 1 .75-.75h3.5a.75.75 0 0 1 0 1.5h-3.5A.75.75 0 0 1 12 14m.75 3.75a.75.75 0 0 0 0 1.5h3.5a.75.75 0 0 0 0-1.5zm-2.006-9.564a.75.75 0 0 1 .07 1.058l-1.75 2a.75.75 0 0 1-1.15-.025l-1-1.25a.75.75 0 1 1 1.172-.938l.44.55 1.16-1.325a.75.75 0 0 1 1.058-.07m.07 5.558a.75.75 0 1 0-1.128-.988l-1.16 1.326-.44-.55a.75.75 0 1 0-1.172.937l1 1.25a.75.75 0 0 0 1.15.025zm-.07 3.442a.75.75 0 0 1 .07 1.058l-1.75 2a.75.75 0 0 1-1.15-.026l-1-1.25a.75.75 0 1 1 1.172-.936l.44.55 1.16-1.326a.75.75 0 0 1 1.058-.07"/><path fill="currentColor" fill-rule="evenodd" d="M11.216.5a1.5 1.5 0 0 0-1.413.996L9.623 2H8.501c-.652 0-1.21.417-1.416 1h-1.46A2.625 2.625 0 0 0 3 5.625v15.75A2.625 2.625 0 0 0 5.625 24h12.75A2.625 2.625 0 0 0 21 21.375V5.625A2.625 2.625 0 0 0 18.375 3h-1.46c-.207-.583-.764-1-1.416-1h-1.122l-.18-.505A1.5 1.5 0 0 0 12.784.5zM19.5 5.625c0-.621-.504-1.125-1.125-1.125H17V5a1.5 1.5 0 0 1-1.5 1.5h-7A1.5 1.5 0 0 1 7 5v-.5H5.625c-.621 0-1.125.504-1.125 1.125v15.75c0 .621.504 1.125 1.125 1.125h12.75c.621 0 1.125-.504 1.125-1.125zM11.216 2h1.568l.358 1.002a.75.75 0 0 0 .706.498H15.5V5h-7V3.5h1.651c.318 0 .6-.2.707-.498z" clip-rule="evenodd"/></svg>
